X:3571
L:1/8
Q:1/8=160
M:6/8
K:D
 B | AFA Aaf | ede fdB | AFA AdF | FEE E2 A | AFA Aaf | ede fdB | ABA Aag | fdd d2 :| a | afa afa | 
 bgb bgb | afa agf | fee efg | a3 f3 | ede fdB | ABA Aag | fdd d2 :|

